public/build/img/skill-languages.svg

<svg width="31" height="30" viewBox="0 0 31 30" fill="none" xmlns="http://www.w3.org/2000/svg">
<g clip-path="url(#clip0)">
<path d="M8.96108 22.5C8.72187 22.5 8.48267 22.4087 8.30078 22.225C7.93574 21.8587 7.93574 21.265 8.30078 20.8987L11.6882 17.5L8.29953 14.1C7.9345 13.7337 7.9345 13.14 8.29953 12.7737C8.66456 12.4075 9.25634 12.4075 9.62138 12.7737L13.6704 16.8362C14.0354 17.2025 14.0354 17.7962 13.6704 18.1625L9.62138 22.225C9.43948 22.4087 9.20028 22.5 8.96108 22.5Z" fill="#1d4ed8"/>
<path d="M22.0424 22.5H16.4361C15.9203 22.5 15.5017 22.08 15.5017 21.5625C15.5017 21.045 15.9203 20.625 16.4361 20.625H22.0424C22.5582 20.625 22.9768 21.045 22.9768 21.5625C22.9768 22.08 22.5582 22.5 22.0424 22.5Z" fill="#1d4ed8"/>
<path d="M27.0258 28.7501H3.97759C2.08764 28.7501 0.551514 27.2089 0.551514 25.3126V4.68762C0.551514 2.79137 2.08764 1.25012 3.97759 1.25012H27.0258C28.9157 1.25012 30.4518 2.79137 30.4518 4.68762V25.3126C30.4518 27.2089 28.9157 28.7501 27.0258 28.7501ZM3.97759 3.12512C3.1192 3.12512 2.42028 3.82637 2.42028 4.68762V25.3126C2.42028 26.1739 3.1192 26.8751 3.97759 26.8751H27.0258C27.8842 26.8751 28.5831 26.1739 28.5831 25.3126V4.68762C28.5831 3.82637 27.8842 3.12512 27.0258 3.12512H3.97759Z" fill="#1d4ed8"/>
<path d="M29.5175 7.5H1.4859C0.970118 7.5 0.551514 7.08 0.551514 6.5625C0.551514 6.045 0.970118 5.625 1.4859 5.625H29.5175C30.0332 5.625 30.4518 6.045 30.4518 6.5625C30.4518 7.08 30.0332 7.5 29.5175 7.5Z" fill="#1d4ed8"/>
</g>
<defs>
<clipPath id="clip0">
<rect width="29.9003" height="30" fill="white" transform="translate(0.551514)"/>
</clipPath>
</defs>
</svg>

<svg width="31" height="30" fill="none" xmlns="http://www.w3.org/2000/svg"><g clip-path="url(#clip0)" fill="#1d4ed8"><path d="M8.961 22.5a.94.94 0 01-.66-1.601l3.387-3.399L8.3 14.1a.94.94 0 010-1.326.933.933 0 011.321 0l4.05 4.062a.94.94 0 010 1.327l-4.05 4.062a.926.926 0 01-.66.275zm13.081 0h-5.606a.936.936 0 01-.934-.938c0-.517.418-.937.934-.937h5.606c.516 0 .935.42.935.938a.936.936 0 01-.935.937z"/><path d="M27.026 28.75H3.978a3.435 3.435 0 01-3.426-3.437V4.688A3.435 3.435 0 013.978 1.25h23.048a3.435 3.435 0 013.426 3.438v20.625a3.435 3.435 0 01-3.426 3.437zM3.978 3.125c-.859 0-1.558.701-1.558 1.563v20.625c0 .86.7 1.562 1.558 1.562h23.048c.858 0 1.557-.701 1.557-1.562V4.688c0-.862-.699-1.563-1.557-1.563H3.978z"/><path d="M29.517 7.5H1.486a.936.936 0 01-.934-.938c0-.517.418-.937.934-.937h28.031c.516 0 .935.42.935.938a.936.936 0 01-.935.937z"/></g><defs><clipPath id="clip0"><path fill="#fff" transform="translate(.552)" d="M0 0h29.9v30H0z"/></clipPath></defs></svg>
